lib/oojs-ui/themes/mediawiki/images/icons/external-link-rtl-invert.svg

<?xml version="1.0" encoding="utf-8"?>
<svg xmlns="http://www.w3.org/2000/svg" width="12" height="12" viewBox="0 0 12 12"><style>* { fill: #FFFFFF }</style>
    <g id="external">
        <path id="box" d="M7 3h2v6h-6v-2h-1v3h8v-8h-3z"/>
        <path id="arrow" d="M2 5.789l1.421-1.421 2.132 2.132.947-.947-2.132-2.132 1.421-1.421h-3.789z"/>
    </g>
</svg>

<?xml version="1.0" encoding="utf-8"?>
<svg xmlns="http://www.w3.org/2000/svg" width="12" height="12" viewBox="0 0 12 12"><style>* { fill: #FFFFFF }</style>
    <g id="external">
        <path id="box" d="M7 3h2v6H3V7H2v3h8V2H7z"/>
        <path id="arrow" d="M2 5.79l1.42-1.422L5.554 6.5l.947-.947L4.368 3.42 5.788 2H2z"/>
    </g>
</svg>
